icons/communication/call-call-incoming-24.svg

<svg width="24" height="24" viewBox="0 0 24 24" fill="none" xmlns="http://www.w3.org/2000/svg">
<path fill-rule="evenodd" clip-rule="evenodd" d="M3.96657 2.87559C5.1323 1.70986 7.02204 1.70986 8.18777 2.87559L9.49982 4.18764C10.4742 5.162 10.4203 6.69819 9.40482 7.7137L8.48952 8.62788C8.47228 8.64522 8.46181 8.66618 8.45798 8.6847C8.45437 8.70216 8.45712 8.71286 8.45983 8.719C9.07647 10.1175 10.0088 11.5049 11.2522 12.7483C12.4958 13.9919 13.8832 14.9253 15.2817 15.543C15.2879 15.5457 15.2986 15.5483 15.3158 15.5448C15.3344 15.5409 15.3552 15.5307 15.3725 15.5134L16.3814 14.5034C17.3284 13.5547 18.8653 13.5554 19.8129 14.5029L21.1238 15.8139C22.2895 16.9796 22.2895 18.8693 21.1238 20.0351L20.3963 20.7626C19.3824 21.7765 17.9327 22.1859 16.5194 21.9192C13.431 21.3354 10.1017 19.5552 7.27351 16.727C4.44531 13.8988 2.66522 10.5698 2.08134 7.48138C1.81469 6.06813 2.224 4.61815 3.2379 3.60426L3.96657 2.87559ZM5.02723 3.93625C5.60717 3.35631 6.54717 3.35631 7.12711 3.93625L8.43916 5.2483C8.7746 5.58375 8.82846 6.16873 8.34416 6.65303L7.42918 7.56691C6.98427 8.01182 6.81482 8.70641 7.08742 9.32439C7.78059 10.8964 8.81987 12.4373 10.1915 13.809C11.5631 15.1805 13.104 16.2209 14.6759 16.9153C15.294 17.188 15.9886 17.0186 16.4336 16.5736L17.4429 15.5632C17.8035 15.202 18.39 15.2013 18.7522 15.5636L20.0632 16.8745C20.6431 17.4545 20.6431 18.3945 20.0632 18.9744L19.3356 19.702C18.6933 20.3443 17.7537 20.6256 16.7978 20.4453C14.0457 19.925 10.9799 18.3121 8.33417 15.6664C5.68852 13.0207 4.07558 9.95477 3.55523 7.20274C3.37495 6.24681 3.65626 5.30722 4.29856 4.66492L5.02723 3.93625Z" fill="black"/>
<path d="M16.4891 6.45021L21.7197 1.21967C21.8603 1.07902 22.0511 1 22.25 1C22.4489 1 22.6397 1.07902 22.7803 1.21967C22.921 1.36032 23 1.55109 23 1.75C23 1.94891 22.921 2.13968 22.7803 2.28033L17.5498 7.51088H21.2314C21.332 7.50732 21.4324 7.52408 21.5264 7.56015C21.6204 7.59621 21.7062 7.65085 21.7787 7.72081C21.8512 7.79076 21.9088 7.87459 21.9482 7.96729C21.9875 8.06 22.0078 8.15969 22.0078 8.26041C22.0078 8.36113 21.9875 8.46081 21.9482 8.55352C21.9088 8.64623 21.8512 8.73006 21.7787 8.80001C21.7062 8.86996 21.6204 8.9246 21.5264 8.96067C21.4324 8.99674 21.332 9.01349 21.2314 9.00994L15.7396 9.00994C15.5407 9.01007 15.35 8.93122 15.2093 8.79074C15.0688 8.65001 14.9899 8.45926 14.9901 8.26041V2.77645C14.9865 2.6758 15.0033 2.57546 15.0393 2.48142C15.0754 2.38738 15.13 2.30157 15.2 2.22911C15.2699 2.15664 15.3538 2.09901 15.4465 2.05965C15.5392 2.02029 15.6389 2 15.7396 2C15.8403 2 15.94 2.02029 16.0327 2.05965C16.1254 2.09901 16.2092 2.15664 16.2792 2.22911C16.3491 2.30157 16.4038 2.38738 16.4399 2.48142C16.4759 2.57546 16.4927 2.6758 16.4891 2.77646L16.4891 6.45021Z" fill="black"/>
</svg>

<svg xmlns="http://www.w3.org/2000/svg" width="24" height="24"><path fill-rule="evenodd" d="M3.967 2.876a2.985 2.985 0 014.22 0L9.5 4.188c.974.974.92 2.51-.095 3.526l-.915.914a.116.116 0 00-.032.057.055.055 0 00.002.034c.616 1.399 1.549 2.786 2.792 4.03 1.244 1.243 2.631 2.176 4.03 2.794a.056.056 0 00.034.002.115.115 0 00.056-.032l1.01-1.01a2.426 2.426 0 013.43 0l1.312 1.31a2.985 2.985 0 010 4.222l-.728.728c-1.014 1.013-2.463 1.423-3.877 1.156-3.088-.584-6.417-2.364-9.245-5.192-2.829-2.828-4.609-6.157-5.193-9.246-.266-1.413.143-2.863 1.157-3.877l.729-.728zm1.06 1.06c.58-.58 1.52-.58 2.1 0L8.44 5.248c.336.336.39.92-.095 1.405l-.915.914a1.587 1.587 0 00-.342 1.757c.694 1.572 1.733 3.113 3.104 4.485 1.372 1.372 2.913 2.412 4.485 3.106a1.587 1.587 0 001.758-.341l1.009-1.01a.925.925 0 011.31 0l1.31 1.31c.58.58.58 1.52 0 2.1l-.727.728c-.643.642-1.582.924-2.538.743-2.752-.52-5.818-2.133-8.464-4.779-2.645-2.645-4.258-5.711-4.779-8.463-.18-.956.101-1.896.744-2.538l.728-.729z"/><path d="M16.49 6.45l5.23-5.23a.75.75 0 111.06 1.06l-5.23 5.23h3.681a.75.75 0 110 1.5H15.74a.75.75 0 01-.75-.75V2.776a.75.75 0 111.5 0V6.45z"/></svg>
